dist/img/icons/phone.svg

<svg width="15" height="14" viewBox="0 0 15 14" fill="none" xmlns="http://www.w3.org/2000/svg">
<path d="M13.7366 10.5994C13.665 10.5281 13.5933 10.4568 13.5217 10.3855C13.3067 10.1716 13.02 9.9577 12.6617 9.67249C12.0883 9.24469 11.3717 8.74558 11.2284 8.67428C11.1567 8.60298 10.9417 8.53167 10.7267 8.53167C10.44 8.53167 10.2251 8.67427 10.0101 8.88818C9.93839 8.95948 9.86671 9.03079 9.86671 9.10209C9.72338 9.316 9.5084 9.45859 9.2934 9.67249C9.0784 9.8864 8.79173 9.88639 8.72006 9.88639C7.93174 9.81509 4.63514 6.53524 4.63514 5.46573C4.63514 5.46573 4.7068 5.25182 4.99347 5.03792C5.20846 4.82401 5.49512 4.75271 5.71012 4.6101C5.78179 4.5388 5.85344 4.53882 5.92511 4.46751C6.28344 4.32491 6.5701 3.9684 6.35511 3.32669C6.28344 3.18409 5.85344 2.47108 5.49511 1.90067C5.28012 1.54416 5.06512 1.25894 4.85013 0.973738C4.77846 0.902437 4.7068 0.759838 4.63514 0.688537C4.42014 0.474634 4.20515 0.332031 3.99015 0.332031C3.63183 0.332031 3.27349 0.545948 2.8435 0.902454C2.8435 0.902454 0.908517 2.54236 0.836851 3.46928C0.836851 3.54058 0.76519 4.3962 1.26685 5.67962C1.76851 7.03434 2.70017 8.46038 3.91848 9.8151C5.1368 11.1698 6.49845 12.168 7.93176 12.881C9.22174 13.5228 10.0817 13.6654 10.225 13.6654C10.2967 13.6654 10.2967 13.6654 10.3684 13.6654C11.3 13.6654 13.1633 12.4532 13.3067 12.3819C13.8083 12.0254 14.095 11.7402 14.1666 11.3837C14.095 11.0272 13.9516 10.8133 13.7366 10.5994ZM11.3 12.0254C10.5834 12.3819 10.2967 12.4532 10.225 12.4532C10.1534 12.4532 9.43672 12.3106 8.36173 11.8115C7.07175 11.1698 5.85346 10.2429 4.70681 9.03079C3.56016 7.81867 2.77182 6.53524 2.27016 5.32312C1.84017 4.2536 1.91183 3.61189 1.91183 3.61189C1.91183 3.61189 1.98352 3.39798 2.55684 2.75627C2.91517 2.32846 3.34515 1.97197 3.48849 1.90067C3.56015 1.82937 3.70348 1.75805 3.77514 1.68675C4.13347 2.18586 4.77847 3.11278 5.06514 3.61189C4.77847 3.75449 4.4918 3.8971 4.20514 4.11101C3.63182 4.53882 3.41682 5.03792 3.41682 5.39442C3.41682 5.60832 3.41681 5.96484 3.70347 6.53524C4.0618 7.31956 6.71343 10.1716 7.43009 10.5281C7.93175 10.8846 8.29008 10.9559 8.57674 10.9559C8.64841 10.9559 8.6484 10.9559 8.72006 10.9559C9.15005 10.9559 9.65173 10.742 10.0817 10.4568C10.4401 10.1716 10.655 9.9577 10.7984 9.7438C11.2284 10.029 12.2317 10.8133 12.6617 11.2411C12.59 11.3124 12.5183 11.3837 12.4467 11.455C12.3033 11.5263 11.8017 11.8115 11.3 12.0254Z" fill="#FF5500"/>
</svg>

<svg width="15" height="14" fill="none" xmlns="http://www.w3.org/2000/svg"><path d="M13.737 10.6l-.215-.214c-.215-.214-.502-.428-.86-.714-.574-.427-1.29-.926-1.434-.998-.071-.071-.286-.142-.501-.142-.287 0-.502.142-.717.356-.072.071-.143.143-.143.214-.144.214-.359.357-.574.57-.215.214-.501.214-.573.214-.788-.07-4.085-3.35-4.085-4.42 0 0 .072-.214.358-.428.215-.214.502-.285.717-.428.072-.071.143-.071.215-.142.358-.143.645-.5.43-1.141a35.651 35.651 0 00-.86-1.426A10.33 10.33 0 004.85.974C4.778.902 4.707.76 4.635.689 4.42.475 4.205.332 3.99.332c-.358 0-.717.214-1.147.57 0 0-1.934 1.64-2.006 2.567 0 .072-.072.927.43 2.21C1.769 7.035 2.7 8.46 3.918 9.816a13.382 13.382 0 004.014 3.066c1.29.642 2.15.784 2.293.784h.143c.932 0 2.795-1.212 2.939-1.283.501-.357.788-.642.86-.998a1.406 1.406 0 00-.43-.785zM11.3 12.024c-.717.357-1.003.428-1.075.428-.072 0-.788-.142-1.863-.641-1.29-.642-2.509-1.57-3.655-2.781C3.56 7.819 2.772 6.535 2.27 5.323c-.43-1.07-.358-1.711-.358-1.711s.072-.214.645-.856c.358-.428.788-.784.931-.855.072-.072.215-.143.287-.214.358.499 1.003 1.426 1.29 1.925a5.3 5.3 0 00-.86.499c-.573.428-.788.927-.788 1.283 0 .214 0 .57.286 1.141.359.785 3.01 3.637 3.727 3.993.502.357.86.428 1.147.428h.143c.43 0 .932-.214 1.362-.5.358-.284.573-.498.716-.712.43.285 1.434 1.07 1.864 1.497l-.215.214c-.144.071-.645.357-1.147.57z" fill="#F50"/></svg>
